src/pages/elements/images/color-type-for-specific-usage-do.svg

<svg xmlns="http://www.w3.org/2000/svg" viewBox="0 0 288 288"><g fill="none" fill-rule="evenodd"><path fill="#FFF" d="M0 0h288v288H0z"/><path d="M54.544 138.288c-4.392 0-7.296-3-7.296-8.664s2.904-8.664 7.296-8.664c4.416 0 7.296 3 7.296 8.664s-2.88 8.664-7.296 8.664zm0-2.808c2.4 0 3.936-1.704 3.936-4.56v-2.592c0-2.856-1.536-4.56-3.936-4.56s-3.936 1.704-3.936 4.56v2.592c0 2.856 1.536 4.56 3.936 4.56zm15.288 2.808c-3.576 0-5.808-2.544-5.808-6.576 0-4.008 2.232-6.528 5.808-6.528 3.6 0 5.832 2.52 5.832 6.528 0 4.032-2.232 6.576-5.832 6.576zm0-2.472c1.608 0 2.616-1.032 2.616-2.928v-2.328c0-1.872-1.008-2.904-2.616-2.904-1.584 0-2.592 1.032-2.592 2.904v2.328c0 1.896 1.008 2.928 2.592 2.928zm8.544 6.984v-17.328h3.072v2.064h.096c.456-1.44 1.8-2.352 3.456-2.352 3.168 0 4.92 2.352 4.92 6.528 0 4.2-1.752 6.576-4.92 6.576-1.656 0-2.976-.96-3.456-2.376h-.096v6.888h-3.072zm5.64-7.056c1.584 0 2.688-1.152 2.688-2.928v-2.16c0-1.776-1.104-2.952-2.688-2.952-1.464 0-2.568.792-2.568 2.016v3.984c0 1.296 1.104 2.04 2.568 2.04zm12.864 2.544c-2.376 0-3.936-.864-5.184-2.304l1.872-1.824c.912 1.056 2.016 1.704 3.432 1.704 1.464 0 2.088-.552 2.088-1.44 0-.72-.432-1.176-1.536-1.32l-1.248-.168c-2.688-.336-4.176-1.512-4.176-3.792 0-2.424 1.896-3.96 4.752-3.96 2.448 0 3.696.72 4.896 1.968l-1.8 1.8c-.72-.768-1.776-1.344-3-1.344-1.32 0-1.896.528-1.896 1.296 0 .84.456 1.224 1.632 1.416l1.272.168c2.736.384 4.056 1.608 4.056 3.696 0 2.424-2.04 4.104-5.16 4.104zm10.512-5.328h-1.344l-.984-6.984v-4.728h3.264v4.728l-.936 6.984zm-.696 5.328c-1.368 0-1.944-.72-1.944-1.704v-.48c0-.984.576-1.704 1.944-1.704 1.344 0 1.92.72 1.92 1.704v.48c0 .984-.576 1.704-1.92 1.704zm-53.76 30c-2.688 0-4.584-1.104-5.928-2.928l1.488-1.248c1.176 1.56 2.568 2.4 4.512 2.4 2.4 0 3.696-1.248 3.696-3.168 0-1.584-.888-2.376-3.096-2.88l-1.368-.312c-3.048-.696-4.728-2.04-4.728-4.608 0-2.976 2.256-4.584 5.544-4.584 2.52 0 4.296.96 5.544 2.736l-1.512 1.104c-.912-1.272-2.184-2.064-4.128-2.064-2.136 0-3.456.936-3.456 2.736 0 1.584 1.032 2.304 3.144 2.784l1.368.312c3.264.744 4.68 2.184 4.68 4.68 0 3.072-2.16 5.04-5.76 5.04zm13.728 0c-3.312 0-5.592-2.544-5.592-6.48 0-3.936 2.28-6.48 5.592-6.48s5.592 2.544 5.592 6.48c0 3.936-2.28 6.48-5.592 6.48zm0-1.704c2.064 0 3.528-1.272 3.528-3.888v-1.776c0-2.616-1.464-3.888-3.528-3.888s-3.528 1.272-3.528 3.888v1.776c0 2.616 1.464 3.888 3.528 3.888zM77.344 168h-1.92v-12.384h1.92v2.016h.096c.552-1.272 1.416-2.304 3.336-2.304 1.632 0 3.12.744 3.792 2.52h.048c.456-1.344 1.656-2.52 3.768-2.52 2.52 0 4.032 1.728 4.032 4.728V168h-1.92v-7.608c0-2.184-.84-3.336-2.712-3.336-1.512 0-2.904.768-2.904 2.352V168h-1.92v-7.608c0-2.208-.84-3.336-2.664-3.336-1.512 0-2.952.768-2.952 2.352V168zm23.688.288c-3.36 0-5.568-2.544-5.568-6.48 0-3.936 2.208-6.48 5.568-6.48 3.312 0 5.352 2.544 5.352 6.048v.912H97.48v.576c0 2.136 1.368 3.744 3.672 3.744 1.56 0 2.76-.768 3.408-2.136l1.368.984c-.792 1.68-2.568 2.832-4.896 2.832zm0-11.352c-2.088 0-3.552 1.584-3.552 3.744v.168h6.84v-.264c0-2.184-1.32-3.648-3.288-3.648zM114.688 168h-2.4c-1.32 0-2.04-.84-2.04-2.04v-8.664h-2.04v-1.68h1.152c.816 0 1.08-.288 1.08-1.128v-2.304h1.728v3.432h2.712v1.68h-2.712v9.024h2.52V168zm3.288 0v-17.76h1.92v7.392h.096c.6-1.392 1.656-2.304 3.504-2.304 2.544 0 4.152 1.728 4.152 4.728V168h-1.92v-7.608c0-2.208-.96-3.336-2.808-3.336-1.536 0-3.024.768-3.024 2.352V168h-1.92zm14.592-15.288c-.816 0-1.176-.432-1.176-1.08v-.312c0-.648.36-1.08 1.176-1.08s1.176.432 1.176 1.08v.312c0 .648-.36 1.08-1.176 1.08zm-.96 15.288v-12.384h1.92V168h-1.92zm7.92 0h-1.92v-12.384h1.92v2.016h.096c.6-1.392 1.656-2.304 3.504-2.304 2.544 0 4.152 1.728 4.152 4.728V168h-1.92v-7.608c0-2.208-.96-3.336-2.808-3.336-1.536 0-3.024.768-3.024 2.352V168zm22.152 1.368c0 2.544-2.016 3.72-6 3.72-3.864 0-5.448-1.104-5.448-3.048 0-1.344.744-2.064 1.968-2.4v-.264c-.696-.336-1.104-.888-1.104-1.728 0-1.248.888-1.848 2.136-2.16v-.096c-1.464-.696-2.328-2.064-2.328-3.792 0-2.52 1.848-4.272 4.656-4.272.888 0 1.68.168 2.352.48v-.216c0-.96.408-1.656 1.44-1.656h1.848v1.68h-2.352v.792c.888.768 1.416 1.872 1.416 3.192 0 2.52-1.848 4.272-4.68 4.272-.408 0-.84-.048-1.2-.12-.816.216-1.632.624-1.632 1.392 0 .744.768.936 1.896.936h2.64c3.072 0 4.392 1.248 4.392 3.288zm-1.8.144c0-.984-.648-1.632-2.568-1.632h-4.128c-.792.36-1.152.912-1.152 1.68 0 1.08.744 1.968 2.688 1.968h1.776c2.136 0 3.384-.672 3.384-2.016zm-4.296-7.176c1.632 0 2.664-.768 2.664-2.4v-.672c0-1.632-1.032-2.4-2.664-2.4-1.632 0-2.664.768-2.664 2.4v.672c0 1.632 1.032 2.4 2.664 2.4zM171.592 168l-3.312-12.384h1.872l1.32 5.352 1.32 5.424h.048l1.512-5.424 1.56-5.352h1.704l1.608 5.352 1.536 5.424h.048l1.272-5.424 1.344-5.352h1.8L181.936 168h-2.376l-1.728-5.952-1.08-3.768h-.048l-1.056 3.768L173.92 168h-2.328zm18.336 0h-1.92v-12.384h1.92v2.28h.12c.432-1.176 1.56-2.28 3.576-2.28h.744v1.92h-1.128c-2.064 0-3.312.888-3.312 2.064v8.4zm11.448.288c-3.312 0-5.592-2.544-5.592-6.48 0-3.936 2.28-6.48 5.592-6.48s5.592 2.544 5.592 6.48c0 3.936-2.28 6.48-5.592 6.48zm0-1.704c2.064 0 3.528-1.272 3.528-3.888v-1.776c0-2.616-1.464-3.888-3.528-3.888s-3.528 1.272-3.528 3.888v1.776c0 2.616 1.464 3.888 3.528 3.888zm10.68 1.416h-1.92v-12.384h1.92v2.016h.096c.6-1.392 1.656-2.304 3.504-2.304 2.544 0 4.152 1.728 4.152 4.728V168h-1.92v-7.608c0-2.208-.96-3.336-2.808-3.336-1.536 0-3.024.768-3.024 2.352V168zm22.152 1.368c0 2.544-2.016 3.72-6 3.72-3.864 0-5.448-1.104-5.448-3.048 0-1.344.744-2.064 1.968-2.4v-.264c-.696-.336-1.104-.888-1.104-1.728 0-1.248.888-1.848 2.136-2.16v-.096c-1.464-.696-2.328-2.064-2.328-3.792 0-2.52 1.848-4.272 4.656-4.272.888 0 1.68.168 2.352.48v-.216c0-.96.408-1.656 1.44-1.656h1.848v1.68h-2.352v.792c.888.768 1.416 1.872 1.416 3.192 0 2.52-1.848 4.272-4.68 4.272-.408 0-.84-.048-1.2-.12-.816.216-1.632.624-1.632 1.392 0 .744.768.936 1.896.936h2.64c3.072 0 4.392 1.248 4.392 3.288zm-1.8.144c0-.984-.648-1.632-2.568-1.632h-4.128c-.792.36-1.152.912-1.152 1.68 0 1.08.744 1.968 2.688 1.968h1.776c2.136 0 3.384-.672 3.384-2.016zm-4.296-7.176c1.632 0 2.664-.768 2.664-2.4v-.672c0-1.632-1.032-2.4-2.664-2.4-1.632 0-2.664.768-2.664 2.4v.672c0 1.632 1.032 2.4 2.664 2.4zm9.864 5.952c-1.008 0-1.464-.576-1.464-1.392v-.312c0-.816.456-1.392 1.464-1.392s1.464.576 1.464 1.392v.312c0 .816-.456 1.392-1.464 1.392z" fill="#DB2663"/></g></svg>

<?xml version="1.0" encoding="UTF-8"?>
<svg width="288px" height="288px" viewBox="0 0 288 288" version="1.1" xmlns="http://www.w3.org/2000/svg" xmlns:xlink="http://www.w3.org/1999/xlink">
    <!-- Generator: Sketch 51.3 (57544) - http://www.bohemiancoding.com/sketch -->
    <title>Color type for specific usage - Do</title>
    <desc>Created with Sketch.</desc>
    <defs></defs>
    <g id="Page-1" stroke="none" stroke-width="1" fill="none" fill-rule="evenodd">
        <g id="Type-Specs" transform="translate(-352.000000, -1345.000000)">
            <g id="Color-type-for-specific-usage---Do" transform="translate(352.000000, 1345.000000)">
                <rect id="Rectangle-16-Copy-152" fill="#FFFFFF" x="0" y="0" width="288" height="288"></rect>
                <path d="M54.544,138.288 C50.152,138.288 47.248,135.288 47.248,129.624 C47.248,123.96 50.152,120.96 54.544,120.96 C58.96,120.96 61.84,123.96 61.84,129.624 C61.84,135.288 58.96,138.288 54.544,138.288 Z M54.544,135.48 C56.944,135.48 58.48,133.776 58.48,130.92 L58.48,128.328 C58.48,125.472 56.944,123.768 54.544,123.768 C52.144,123.768 50.608,125.472 50.608,128.328 L50.608,130.92 C50.608,133.776 52.144,135.48 54.544,135.48 Z M69.832,138.288 C66.256,138.288 64.024,135.744 64.024,131.712 C64.024,127.704 66.256,125.184 69.832,125.184 C73.432,125.184 75.664,127.704 75.664,131.712 C75.664,135.744 73.432,138.288 69.832,138.288 Z M69.832,135.816 C71.44,135.816 72.448,134.784 72.448,132.888 L72.448,130.56 C72.448,128.688 71.44,127.656 69.832,127.656 C68.248,127.656 67.24,128.688 67.24,130.56 L67.24,132.888 C67.24,134.784 68.248,135.816 69.832,135.816 Z M78.376,142.8 L78.376,125.472 L81.448,125.472 L81.448,127.536 L81.544,127.536 C82,126.096 83.344,125.184 85,125.184 C88.168,125.184 89.92,127.536 89.92,131.712 C89.92,135.912 88.168,138.288 85,138.288 C83.344,138.288 82.024,137.328 81.544,135.912 L81.448,135.912 L81.448,142.8 L78.376,142.8 Z M84.016,135.744 C85.6,135.744 86.704,134.592 86.704,132.816 L86.704,130.656 C86.704,128.88 85.6,127.704 84.016,127.704 C82.552,127.704 81.448,128.496 81.448,129.72 L81.448,133.704 C81.448,135 82.552,135.744 84.016,135.744 Z M96.88,138.288 C94.504,138.288 92.944,137.424 91.696,135.984 L93.568,134.16 C94.48,135.216 95.584,135.864 97,135.864 C98.464,135.864 99.088,135.312 99.088,134.424 C99.088,133.704 98.656,133.248 97.552,133.104 L96.304,132.936 C93.616,132.6 92.128,131.424 92.128,129.144 C92.128,126.72 94.024,125.184 96.88,125.184 C99.328,125.184 100.576,125.904 101.776,127.152 L99.976,128.952 C99.256,128.184 98.2,127.608 96.976,127.608 C95.656,127.608 95.08,128.136 95.08,128.904 C95.08,129.744 95.536,130.128 96.712,130.32 L97.984,130.488 C100.72,130.872 102.04,132.096 102.04,134.184 C102.04,136.608 100,138.288 96.88,138.288 Z M107.392,132.96 L106.048,132.96 L105.064,125.976 L105.064,121.248 L108.328,121.248 L108.328,125.976 L107.392,132.96 Z M106.696,138.288 C105.328,138.288 104.752,137.568 104.752,136.584 L104.752,136.104 C104.752,135.12 105.328,134.4 106.696,134.4 C108.04,134.4 108.616,135.12 108.616,136.104 L108.616,136.584 C108.616,137.568 108.04,138.288 106.696,138.288 Z M52.936,168.288 C50.248,168.288 48.352,167.184 47.008,165.36 L48.496,164.112 C49.672,165.672 51.064,166.512 53.008,166.512 C55.408,166.512 56.704,165.264 56.704,163.344 C56.704,161.76 55.816,160.968 53.608,160.464 L52.24,160.152 C49.192,159.456 47.512,158.112 47.512,155.544 C47.512,152.568 49.768,150.96 53.056,150.96 C55.576,150.96 57.352,151.92 58.6,153.696 L57.088,154.8 C56.176,153.528 54.904,152.736 52.96,152.736 C50.824,152.736 49.504,153.672 49.504,155.472 C49.504,157.056 50.536,157.776 52.648,158.256 L54.016,158.568 C57.28,159.312 58.696,160.752 58.696,163.248 C58.696,166.32 56.536,168.288 52.936,168.288 Z M66.664,168.288 C63.352,168.288 61.072,165.744 61.072,161.808 C61.072,157.872 63.352,155.328 66.664,155.328 C69.976,155.328 72.256,157.872 72.256,161.808 C72.256,165.744 69.976,168.288 66.664,168.288 Z M66.664,166.584 C68.728,166.584 70.192,165.312 70.192,162.696 L70.192,160.92 C70.192,158.304 68.728,157.032 66.664,157.032 C64.6,157.032 63.136,158.304 63.136,160.92 L63.136,162.696 C63.136,165.312 64.6,166.584 66.664,166.584 Z M77.344,168 L75.424,168 L75.424,155.616 L77.344,155.616 L77.344,157.632 L77.44,157.632 C77.992,156.36 78.856,155.328 80.776,155.328 C82.408,155.328 83.896,156.072 84.568,157.848 L84.616,157.848 C85.072,156.504 86.272,155.328 88.384,155.328 C90.904,155.328 92.416,157.056 92.416,160.056 L92.416,168 L90.496,168 L90.496,160.392 C90.496,158.208 89.656,157.056 87.784,157.056 C86.272,157.056 84.88,157.824 84.88,159.408 L84.88,168 L82.96,168 L82.96,160.392 C82.96,158.184 82.12,157.056 80.296,157.056 C78.784,157.056 77.344,157.824 77.344,159.408 L77.344,168 Z M101.032,168.288 C97.672,168.288 95.464,165.744 95.464,161.808 C95.464,157.872 97.672,155.328 101.032,155.328 C104.344,155.328 106.384,157.872 106.384,161.376 L106.384,162.288 L97.48,162.288 L97.48,162.864 C97.48,165 98.848,166.608 101.152,166.608 C102.712,166.608 103.912,165.84 104.56,164.472 L105.928,165.456 C105.136,167.136 103.36,168.288 101.032,168.288 Z M101.032,156.936 C98.944,156.936 97.48,158.52 97.48,160.68 L97.48,160.848 L104.32,160.848 L104.32,160.584 C104.32,158.4 103,156.936 101.032,156.936 Z M114.688,168 L112.288,168 C110.968,168 110.248,167.16 110.248,165.96 L110.248,157.296 L108.208,157.296 L108.208,155.616 L109.36,155.616 C110.176,155.616 110.44,155.328 110.44,154.488 L110.44,152.184 L112.168,152.184 L112.168,155.616 L114.88,155.616 L114.88,157.296 L112.168,157.296 L112.168,166.32 L114.688,166.32 L114.688,168 Z M117.976,168 L117.976,150.24 L119.896,150.24 L119.896,157.632 L119.992,157.632 C120.592,156.24 121.648,155.328 123.496,155.328 C126.04,155.328 127.648,157.056 127.648,160.056 L127.648,168 L125.728,168 L125.728,160.392 C125.728,158.184 124.768,157.056 122.92,157.056 C121.384,157.056 119.896,157.824 119.896,159.408 L119.896,168 L117.976,168 Z M132.568,152.712 C131.752,152.712 131.392,152.28 131.392,151.632 L131.392,151.32 C131.392,150.672 131.752,150.24 132.568,150.24 C133.384,150.24 133.744,150.672 133.744,151.32 L133.744,151.632 C133.744,152.28 133.384,152.712 132.568,152.712 Z M131.608,168 L131.608,155.616 L133.528,155.616 L133.528,168 L131.608,168 Z M139.528,168 L137.608,168 L137.608,155.616 L139.528,155.616 L139.528,157.632 L139.624,157.632 C140.224,156.24 141.28,155.328 143.128,155.328 C145.672,155.328 147.28,157.056 147.28,160.056 L147.28,168 L145.36,168 L145.36,160.392 C145.36,158.184 144.4,157.056 142.552,157.056 C141.016,157.056 139.528,157.824 139.528,159.408 L139.528,168 Z M161.68,169.368 C161.68,171.912 159.664,173.088 155.68,173.088 C151.816,173.088 150.232,171.984 150.232,170.04 C150.232,168.696 150.976,167.976 152.2,167.64 L152.2,167.376 C151.504,167.04 151.096,166.488 151.096,165.648 C151.096,164.4 151.984,163.8 153.232,163.488 L153.232,163.392 C151.768,162.696 150.904,161.328 150.904,159.6 C150.904,157.08 152.752,155.328 155.56,155.328 C156.448,155.328 157.24,155.496 157.912,155.808 L157.912,155.592 C157.912,154.632 158.32,153.936 159.352,153.936 L161.2,153.936 L161.2,155.616 L158.848,155.616 L158.848,156.408 C159.736,157.176 160.264,158.28 160.264,159.6 C160.264,162.12 158.416,163.872 155.584,163.872 C155.176,163.872 154.744,163.824 154.384,163.752 C153.568,163.968 152.752,164.376 152.752,165.144 C152.752,165.888 153.52,166.08 154.648,166.08 L157.288,166.08 C160.36,166.08 161.68,167.328 161.68,169.368 Z M159.88,169.512 C159.88,168.528 159.232,167.88 157.312,167.88 L153.184,167.88 C152.392,168.24 152.032,168.792 152.032,169.56 C152.032,170.64 152.776,171.528 154.72,171.528 L156.496,171.528 C158.632,171.528 159.88,170.856 159.88,169.512 Z M155.584,162.336 C157.216,162.336 158.248,161.568 158.248,159.936 L158.248,159.264 C158.248,157.632 157.216,156.864 155.584,156.864 C153.952,156.864 152.92,157.632 152.92,159.264 L152.92,159.936 C152.92,161.568 153.952,162.336 155.584,162.336 Z M171.592,168 L168.28,155.616 L170.152,155.616 L171.472,160.968 L172.792,166.392 L172.84,166.392 L174.352,160.968 L175.912,155.616 L177.616,155.616 L179.224,160.968 L180.76,166.392 L180.808,166.392 L182.08,160.968 L183.424,155.616 L185.224,155.616 L181.936,168 L179.56,168 L177.832,162.048 L176.752,158.28 L176.704,158.28 L175.648,162.048 L173.92,168 L171.592,168 Z M189.928,168 L188.008,168 L188.008,155.616 L189.928,155.616 L189.928,157.896 L190.048,157.896 C190.48,156.72 191.608,155.616 193.624,155.616 L194.368,155.616 L194.368,157.536 L193.24,157.536 C191.176,157.536 189.928,158.424 189.928,159.6 L189.928,168 Z M201.376,168.288 C198.064,168.288 195.784,165.744 195.784,161.808 C195.784,157.872 198.064,155.328 201.376,155.328 C204.688,155.328 206.968,157.872 206.968,161.808 C206.968,165.744 204.688,168.288 201.376,168.288 Z M201.376,166.584 C203.44,166.584 204.904,165.312 204.904,162.696 L204.904,160.92 C204.904,158.304 203.44,157.032 201.376,157.032 C199.312,157.032 197.848,158.304 197.848,160.92 L197.848,162.696 C197.848,165.312 199.312,166.584 201.376,166.584 Z M212.056,168 L210.136,168 L210.136,155.616 L212.056,155.616 L212.056,157.632 L212.152,157.632 C212.752,156.24 213.808,155.328 215.656,155.328 C218.2,155.328 219.808,157.056 219.808,160.056 L219.808,168 L217.888,168 L217.888,160.392 C217.888,158.184 216.928,157.056 215.08,157.056 C213.544,157.056 212.056,157.824 212.056,159.408 L212.056,168 Z M234.208,169.368 C234.208,171.912 232.192,173.088 228.208,173.088 C224.344,173.088 222.76,171.984 222.76,170.04 C222.76,168.696 223.504,167.976 224.728,167.64 L224.728,167.376 C224.032,167.04 223.624,166.488 223.624,165.648 C223.624,164.4 224.512,163.8 225.76,163.488 L225.76,163.392 C224.296,162.696 223.432,161.328 223.432,159.6 C223.432,157.08 225.28,155.328 228.088,155.328 C228.976,155.328 229.768,155.496 230.44,155.808 L230.44,155.592 C230.44,154.632 230.848,153.936 231.88,153.936 L233.728,153.936 L233.728,155.616 L231.376,155.616 L231.376,156.408 C232.264,157.176 232.792,158.28 232.792,159.6 C232.792,162.12 230.944,163.872 228.112,163.872 C227.704,163.872 227.272,163.824 226.912,163.752 C226.096,163.968 225.28,164.376 225.28,165.144 C225.28,165.888 226.048,166.08 227.176,166.08 L229.816,166.08 C232.888,166.08 234.208,167.328 234.208,169.368 Z M232.408,169.512 C232.408,168.528 231.76,167.88 229.84,167.88 L225.712,167.88 C224.92,168.24 224.56,168.792 224.56,169.56 C224.56,170.64 225.304,171.528 227.248,171.528 L229.024,171.528 C231.16,171.528 232.408,170.856 232.408,169.512 Z M228.112,162.336 C229.744,162.336 230.776,161.568 230.776,159.936 L230.776,159.264 C230.776,157.632 229.744,156.864 228.112,156.864 C226.48,156.864 225.448,157.632 225.448,159.264 L225.448,159.936 C225.448,161.568 226.48,162.336 228.112,162.336 Z M237.976,168.288 C236.968,168.288 236.512,167.712 236.512,166.896 L236.512,166.584 C236.512,165.768 236.968,165.192 237.976,165.192 C238.984,165.192 239.44,165.768 239.44,166.584 L239.44,166.896 C239.44,167.712 238.984,168.288 237.976,168.288 Z" id="Oops!-Something-wron" fill="#DB2663"></path>
            </g>
        </g>
    </g>
</svg>
